ui/public/images/landing-cards/file-damaged.svg

<svg width="17" height="16" viewBox="0 0 17 16" fill="none" xmlns="http://www.w3.org/2000/svg">
<g clip-path="url(#clip0_11778_289458)">
<path d="M2.5 9.3335L5.16667 11.0002L7.16667 8.66683L9.16667 11.3335L10.5 9.66683L12.5 10.0002L10.5 8.00016L9.16667 9.66683L7.16667 6.3335L4.83333 8.8335L2.5 6.66683V1.99483C2.5 1.63683 2.798 1.3335 3.16533 1.3335H9.83333V5.3335C9.83333 5.51031 9.90357 5.67988 10.0286 5.8049C10.1536 5.92992 10.3232 6.00016 10.5 6.00016H14.5V13.9955C14.5006 14.083 14.484 14.1699 14.451 14.251C14.4181 14.3321 14.3695 14.4059 14.308 14.4683C14.2466 14.5306 14.1734 14.5802 14.0928 14.6143C14.0121 14.6484 13.9255 14.6662 13.838 14.6668H3.162C2.98654 14.6668 2.81826 14.5972 2.69413 14.4732C2.57 14.3492 2.50018 14.181 2.5 14.0055V9.3335ZM14.5 4.66683H11.1667V1.3355L14.5 4.66683Z" fill="#161616"/>
</g>
<defs>
<clipPath id="clip0_11778_289458">
<rect width="16" height="16" fill="white" transform="translate(0.5)"/>
</clipPath>
</defs>
</svg>

<svg width="17" height="16" fill="none" xmlns="http://www.w3.org/2000/svg"><g clip-path="url(#a)"><path d="M2.5 9.334 5.167 11l2-2.333 2 2.667L10.5 9.667l2 .333-2-2-1.333 1.667-2-3.333-2.334 2.5L2.5 6.667V1.995c0-.358.298-.662.665-.662h6.668v4A.667.667 0 0 0 10.5 6h4v7.995a.666.666 0 0 1-.662.672H3.162a.662.662 0 0 1-.662-.662V9.334zm12-4.667h-3.333V1.335L14.5 4.667z" fill="#161616"/></g><defs><clipPath id="a"><path fill="#fff" transform="translate(.5)" d="M0 0h16v16H0z"/></clipPath></defs></svg>
